X:1
T: Kitty Losty's Reel
C:
R:Reel
Q: 232
K:Em
M:4/4
L:1/8
|:d^c df e2 dB|AD ((3FED) FA A2|Bd df ed B^c|dB AF BE E2|
d^c df e2 dB|AD ((3FED) FA A2|Bd df ed B^c|dB AF BE E2|
d^c df e2 dB|AD ((3FED) FA A2|Bd df ed B^c|dB AF BE E2|
d^c df e2 dB|AD ((3FED) FA A2|Bd df ed B^c|dB AF BE E2:||
